svg/24/compass--filled.svg

<svg width="24" height="24" viewBox="0 0 24 24" fill="currentColor" xmlns="http://www.w3.org/2000/svg"><path fill-rule="evenodd" clip-rule="evenodd" d="M12 22C17.5228 22 22 17.5228 22 12C22 6.47715 17.5228 2 12 2C6.47715 2 2 6.47715 2 12C2 17.5228 6.47715 22 12 22ZM6.91403 15.7808C6.57559 16.6027 7.39753 17.4246 8.21946 17.0862L14.115 14.6586C14.3615 14.5571 14.5573 14.3613 14.6589 14.1147L17.0864 8.21922C17.4249 7.39728 16.6029 6.57535 15.781 6.91379L9.88552 9.34134C9.63894 9.44288 9.44312 9.63869 9.34159 9.88527L6.91403 15.7808ZM15.2425 8.75771L10.6493 10.649L13.3512 13.3509L15.2425 8.75771Z"/></svg>

<svg xmlns="http://www.w3.org/2000/svg" width="24" height="24" fill="currentColor" viewBox="0 0 24 24">
  <path fill-rule="evenodd" d="M12 22c5.523 0 10-4.477 10-10S17.523 2 12 2 2 6.477 2 12s4.477 10 10 10Zm-5.086-6.22c-.338.823.484 1.645 1.305 1.306l5.896-2.427a1 1 0 0 0 .544-.544l2.427-5.896c.339-.822-.483-1.644-1.305-1.305L9.886 9.34a1 1 0 0 0-.544.544L6.914 15.78Zm8.329-7.022-4.594 1.891 2.702 2.702 1.891-4.593Z" clip-rule="evenodd"/>
</svg>
